;FLAVOR:Marlin
;TIME:1297
;Filament used: 0.8168m
;Layer height: 0.2
;MINX:79.5
;MINY:39
;MINZ:0.2
;MAXX:140.5
;MAXY:181
;MAXZ:1
;TARGET_MACHINE.NAME:Creality Ender-3 S1
;Generated with Cura_SteamEngine 5.9.0
M82 ;absolute extrusion mode
; Ender 3 S1 Start G-code
; M413 S0 ; Disable power loss recovery
G92 E0 ; Reset Extruder

; Prep surfaces before auto home for better accuracy
M140 S60
M104 S200

G28 ; Home all axes
G1 Z10.0 F3000 ; Move Z Axis up little to prevent scratching of Heat Bed
G1 X0 Y0

M190 S60
M109 S200

G1 X0.1 Y20 Z0.3 F5000.0 ; Move to start position
G1 X0.1 Y200.0 Z0.3 F1500.0 E15 ; Draw the first line
G1 X0.4 Y200.0 Z0.3 F5000.0 ; Move to side a little
G1 X0.4 Y20 Z0.3 F1500.0 E30 ; Draw the second line
G92 E0 ; Reset Extruder
G1 Z2.0 F3000 ; Move Z Axis up little to prevent scratching of Heat Bed
G1 X5 Y20 Z0.3 F5000.0 ; Move over to prevent blob squish

G92 E0
G92 E0
G1 F2400 E-0.8
;LAYER_COUNT:5
;LAYER:0
M107
M204 S2000
G0 F7500 X79.933 Y111.012 Z0.2
M204 S500
;TYPE:SKIRT
G1 F2400 E0
G1 F1500 X79.593 Y108.343 E0.08949
G1 X79.513 Y107.294 E0.12448
G1 X79.5 Y106.67 E0.14524
G1 X79.501 Y95.539 E0.51546
G1 X79.514 Y94.775 E0.54087
G1 X79.604 Y93.553 E0.58163
G1 X79.756 Y92.416 E0.61978
G1 X80.053 Y89.862 E0.7053
G1 X80.275 Y87.364 E0.78871
G1 X80.424 Y84.858 E0.87221
G1 X80.504 Y82.318 E0.95673
G1 X80.513 Y79.733 E1.04271
G1 X80.5 Y78.687 E1.0775
G1 X80.501 Y73.549 E1.24839
G1 X80.511 Y72.83 E1.27231
G1 X80.536 Y72.247 E1.29171
G1 X80.634 Y70.835 E1.33879
G1 X80.769 Y68.62 E1.4126
G1 X80.852 Y66.12 E1.4958
G1 X80.862 Y63.574 E1.58048
G1 X80.802 Y61.061 E1.66408
G1 X80.672 Y58.566 E1.74718
G1 X80.54 Y56.804 E1.80595
G1 X80.513 Y56.295 E1.8229
G1 X80.5 Y55.671 E1.84366
G1 X80.501 Y50.509 E2.01535
G1 X80.513 Y49.808 E2.03867
G1 X80.573 Y48.835 E2.07109
G1 X80.72 Y47.874 E2.10343
G1 X80.951 Y46.926 E2.13588
G1 X81.253 Y46.037 E2.16711
G1 X81.66 Y45.115 E2.20063
G1 X82.131 Y44.263 E2.23301
G1 X82.676 Y43.454 E2.26545
G1 X83.267 Y42.726 E2.29664
G1 X83.969 Y42.001 E2.3302
G1 X84.679 Y41.387 E2.36142
G1 X85.498 Y40.797 E2.395
G1 X86.337 Y40.301 E2.42741
G1 X87.151 Y39.91 E2.45745
G1 X88.128 Y39.542 E2.49217
G1 X89.032 Y39.292 E2.52337
G1 X90.034 Y39.109 E2.55725
G1 X91.205 Y39.013 E2.59632
G1 X91.812 Y39 E2.61652
G1 X126.804 Y39 E3.78036
G1 X127.684 Y39.013 E3.80963
G1 X128.656 Y39.072 E3.84202
G1 X129.619 Y39.218 E3.87441
G1 X130.566 Y39.449 E3.90683
G1 X131.454 Y39.749 E3.93801
G1 X132.346 Y40.139 E3.97039
G1 X133.229 Y40.626 E4.00393
G1 X133.98 Y41.128 E4.03397
G1 X134.795 Y41.786 E4.06881
G1 X135.493 Y42.464 E4.10118
G1 X136.129 Y43.201 E4.13355
G1 X136.699 Y43.991 E4.16595
G1 X137.161 Y44.767 E4.19599
G1 X137.615 Y45.709 E4.23077
G1 X137.944 Y46.587 E4.26196
G1 X138.213 Y47.559 E4.2955
G1 X138.39 Y48.525 E4.32817
G1 X138.485 Y49.655 E4.36588
G1 X138.5 Y50.33 E4.38834
G1 X138.499 Y55.428 E4.5579
G1 X138.489 Y56.165 E4.58241
G1 X138.464 Y56.752 E4.60196
G1 X138.366 Y58.165 E4.64906
G1 X138.231 Y60.38 E4.72287
G1 X138.148 Y62.88 E4.80607
G1 X138.138 Y65.426 E4.89075
G1 X138.198 Y67.939 E4.97436
G1 X138.328 Y70.441 E5.05769
G1 X138.459 Y72.188 E5.11595
G1 X138.485 Y72.672 E5.13208
G1 X138.5 Y73.329 E5.15393
G1 X138.499 Y78.438 E5.32386
G1 X138.486 Y79.222 E5.34994
G1 X138.396 Y80.428 E5.39016
G1 X138.17 Y82.109 E5.44657
G1 X137.882 Y84.649 E5.5316
G1 X137.665 Y87.179 E5.61605
G1 X137.525 Y89.641 E5.69807
G1 X137.452 Y92.209 E5.78352
G1 X137.45 Y94.722 E5.8671
G1 X137.521 Y97.23 E5.95055
G1 X137.661 Y99.714 E6.0333
G1 X137.877 Y102.284 E6.11908
G1 X138.153 Y104.71 E6.20029
G1 X138.509 Y107.226 E6.28481
G1 X138.937 Y109.732 E6.36936
G1 X139.419 Y112.139 E6.45101
G1 X140.011 Y114.72 E6.53908
G1 X140.181 Y115.41 E6.56272
G1 X140.363 Y116.338 E6.59417
G1 X140.485 Y117.673 E6.63876
G1 X140.5 Y118.33 E6.66062
G1 X140.499 Y123.429 E6.83021
G1 X140.481 Y124.652 E6.87089
G1 X140.424 Y126.697 E6.93894
G1 X140.424 Y129.216 E7.02272
G1 X140.497 Y132.049 E7.11698
G1 X140.499 Y137.465 E7.29711
G1 X140.486 Y138.204 E7.3217
G1 X140.425 Y139.177 E7.35412
G1 X140.278 Y140.14 E7.38652
G1 X140.046 Y141.085 E7.41889
G1 X139.757 Y141.941 E7.44894
G1 X139.178 Y143.202 E7.49509
G1 X138.726 Y144.044 E7.52687
G1 X138.138 Y145.101 E7.5671
G1 X136.952 Y147.38 E7.65255
G1 X135.879 Y149.591 E7.73429
G1 X134.836 Y151.91 E7.81886
G1 X133.852 Y154.272 E7.90397
G1 X132.951 Y156.617 E7.98752
G1 X132.136 Y158.935 E8.06925
G1 X131.357 Y161.371 E8.15431
G1 X130.655 Y163.796 E8.23828
G1 X130.117 Y165.833 E8.30835
G1 X129.821 Y166.771 E8.34107
G1 X129.333 Y167.907 E8.38219
G1 X128.32 Y169.934 E8.45756
G1 X127.844 Y170.785 E8.48999
G1 X127.295 Y171.588 E8.52234
G1 X126.707 Y172.309 E8.55328
G1 X126.338 Y172.701 E8.57119
G1 X125.523 Y173.532 E8.6099
G1 X123.112 Y175.929 E8.72298
G1 X122.361 Y176.586 E8.75617
G1 X121.633 Y177.12 E8.7862
G1 X120.452 Y177.811 E8.83171
G1 X116.295 Y179.888 E8.98627
G1 X115.401 Y180.273 E9.01864
G1 X114.511 Y180.569 E9.04984
G1 X113.529 Y180.801 E9.0834
G1 X112.635 Y180.931 E9.11345
G1 X111.827 Y180.985 E9.14038
G1 X111.17 Y181 E9.16224
G1 X99.05 Y180.999 E9.56535
G1 X98.312 Y180.987 E9.5899
G1 X97.34 Y180.928 E9.62229
G1 X96.377 Y180.782 E9.65468
G1 X95.43 Y180.551 E9.6871
G1 X94.508 Y180.237 E9.7195
G1 X93.585 Y179.83 E9.75305
G1 X89.556 Y177.814 E9.9029
G1 X88.707 Y177.338 E9.93527
G1 X87.904 Y176.789 E9.96762
G1 X87.185 Y176.201 E9.99851
G1 X86.793 Y175.835 E10.01635
G1 X85.946 Y175.001 E10.05589
G1 X83.828 Y172.878 E10.15563
G1 X83.567 Y172.606 E10.16817
G1 X82.913 Y171.861 E10.20114
G1 X82.379 Y171.133 E10.23117
G1 X81.67 Y169.916 E10.27801
G1 X80.656 Y167.885 E10.35352
G1 X80.262 Y166.994 E10.38592
G1 X79.959 Y166.106 E10.41713
G1 X79.719 Y165.126 E10.45068
G1 X79.573 Y164.167 E10.48295
G1 X79.515 Y163.327 E10.51095
G1 X79.5 Y162.67 E10.53281
G1 X79.501 Y152.539 E10.86977
G1 X79.514 Y151.775 E10.89518
G1 X79.6 Y150.59 E10.9347
G1 X79.806 Y148.984 E10.98855
G1 X80.088 Y146.428 E11.07408
G1 X80.297 Y143.897 E11.15855
G1 X80.427 Y141.457 E11.23982
G1 X80.5 Y137.776 E11.36228
G1 X80.501 Y132.55 E11.53609
G1 X80.519 Y131.347 E11.57611
G1 X80.576 Y129.303 E11.64412
G1 X80.576 Y126.785 E11.72787
G1 X80.503 Y123.951 E11.82216
G1 X80.5 Y121.109 E11.91668
G1 X80.463 Y118.515 E12.00297
G1 X80.354 Y115.969 E12.08773
G1 X80.179 Y113.489 E12.17042
G1 X79.933 Y111.012 E12.25321
M204 S2000
G0 F7500 X80.33 Y110.961
M204 S500
G1 F1500 X79.992 Y108.312 E12.34203
G1 X79.913 Y107.286 E12.37625
G1 X79.9 Y106.67 E12.39675
G1 X79.901 Y95.545 E12.76677
G1 X79.913 Y94.804 E12.79142
G1 X80.001 Y93.606 E12.83137
G1 X80.152 Y92.469 E12.86952
G1 X80.45 Y89.908 E12.95527
G1 X80.673 Y87.399 E13.03905
G1 X80.824 Y84.871 E13.12328
G1 X80.904 Y82.331 E13.2078
G1 X80.913 Y79.734 E13.29418
G1 X80.9 Y78.687 E13.32901
G1 X80.901 Y73.555 E13.4997
G1 X80.911 Y72.847 E13.52325
G1 X80.935 Y72.275 E13.54229
G1 X81.033 Y70.863 E13.58937
G1 X81.169 Y68.633 E13.66367
G1 X81.252 Y66.133 E13.74687
G1 X81.262 Y63.576 E13.83192
G1 X81.202 Y61.051 E13.91592
G1 X81.071 Y58.536 E13.99969
G1 X80.939 Y56.783 E14.05816
G1 X80.913 Y56.287 E14.07468
G1 X80.9 Y55.671 E14.09517
G1 X80.901 Y50.515 E14.26666
G1 X80.912 Y49.832 E14.28938
G1 X80.969 Y48.895 E14.3206
G1 X81.109 Y47.968 E14.35178
G1 X81.33 Y47.055 E14.38302
G1 X81.632 Y46.166 E14.41425
G1 X82.01 Y45.308 E14.44544
G1 X82.463 Y44.486 E14.47665
G1 X82.987 Y43.706 E14.50791
G1 X83.578 Y42.978 E14.53909
G1 X84.231 Y42.304 E14.57031
G1 X84.941 Y41.69 E14.60153
G1 X85.702 Y41.141 E14.63274
G1 X86.51 Y40.662 E14.66398
G1 X87.324 Y40.271 E14.69401
G1 X88.235 Y39.928 E14.72639
G1 X89.139 Y39.678 E14.75759
G1 X90.067 Y39.508 E14.78897
G1 X91.214 Y39.413 E14.82725
G1 X91.821 Y39.4 E14.84744
G1 X126.798 Y39.4 E16.01078
G1 X127.66 Y39.412 E16.03945
G1 X128.597 Y39.468 E16.07067
G1 X129.525 Y39.607 E16.10188
G1 X130.438 Y39.828 E16.13313
G1 X131.294 Y40.116 E16.16316
G1 X132.186 Y40.506 E16.19554
G1 X133.007 Y40.959 E16.22673
G1 X133.758 Y41.461 E16.25678
G1 X134.517 Y42.073 E16.2892
G1 X135.191 Y42.726 E16.32042
G1 X135.805 Y43.435 E16.35161
G1 X136.355 Y44.196 E16.38284
G1 X136.817 Y44.972 E16.41288
G1 X137.24 Y45.849 E16.44527
G1 X137.569 Y46.727 E16.47645
G1 X137.82 Y47.632 E16.50769
G1 X137.991 Y48.559 E16.53904
G1 X138.086 Y49.689 E16.57676
G1 X138.1 Y50.33 E16.59808
G1 X138.099 Y55.422 E16.76744
G1 X138.089 Y56.148 E16.79159
G1 X138.065 Y56.724 E16.81076
G1 X137.967 Y58.137 E16.85787
G1 X137.831 Y60.367 E16.93218
G1 X137.748 Y62.867 E17.01538
G1 X137.738 Y65.424 E17.10043
G1 X137.798 Y67.949 E17.18443
G1 X137.929 Y70.471 E17.26843
G1 X138.06 Y72.209 E17.3264
G1 X138.085 Y72.681 E17.34212
G1 X138.1 Y73.329 E17.36368
G1 X138.099 Y78.432 E17.5334
G1 X138.087 Y79.192 E17.55868
G1 X137.997 Y80.398 E17.59891
G1 X137.774 Y82.056 E17.65455
G1 X137.483 Y84.615 E17.74021
G1 X137.267 Y87.145 E17.82466
G1 X137.125 Y89.63 E17.90745
G1 X137.052 Y92.198 E17.9929
G1 X137.05 Y94.722 E18.07684
G1 X137.121 Y97.241 E18.16066
G1 X137.262 Y99.748 E18.24417
G1 X137.479 Y102.318 E18.32996
G1 X137.757 Y104.766 E18.4119
G1 X138.115 Y107.293 E18.49679
G1 X138.545 Y109.81 E18.58172
G1 X139.029 Y112.229 E18.66377
G1 X139.622 Y114.81 E18.75185
G1 X139.788 Y115.487 E18.77503
G1 X139.97 Y116.415 E18.80649
G1 X140.085 Y117.682 E18.8488
G1 X140.1 Y118.33 E18.87036
G1 X140.099 Y123.423 E19.03975
G1 X140.081 Y124.641 E19.08027
G1 X140.024 Y126.686 E19.14831
G1 X140.024 Y129.216 E19.23246
G1 X140.097 Y132.049 E19.32672
G1 X140.099 Y137.458 E19.50662
G1 X140.087 Y138.18 E19.53064
G1 X140.03 Y139.117 E19.56186
G1 X139.889 Y140.045 E19.59308
G1 X139.667 Y140.957 E19.6243
G1 X139.378 Y141.813 E19.65435
G1 X138.826 Y143.013 E19.69828
G1 X138.376 Y143.85 E19.72989
G1 X137.788 Y144.907 E19.77012
G1 X136.597 Y147.195 E19.85591
G1 X135.519 Y149.416 E19.93802
G1 X134.471 Y151.746 E20.023
G1 X133.483 Y154.118 E20.10846
G1 X132.578 Y156.474 E20.1924
G1 X131.759 Y158.802 E20.27448
G1 X130.976 Y161.249 E20.35994
G1 X130.268 Y163.694 E20.4446
G1 X129.735 Y165.713 E20.51405
G1 X129.453 Y166.613 E20.54542
G1 X128.975 Y167.728 E20.58577
G1 X127.971 Y169.739 E20.66053
G1 X127.513 Y170.56 E20.6918
G1 X126.985 Y171.335 E20.72299
G1 X126.397 Y172.056 E20.75393
G1 X126.053 Y172.421 E20.77061
G1 X125.241 Y173.248 E20.80916
G1 X122.83 Y175.645 E20.92224
G1 X122.124 Y176.263 E20.95345
G1 X121.396 Y176.797 E20.98348
G1 X120.273 Y177.453 E21.02673
G1 X116.136 Y179.521 E21.18056
G1 X115.275 Y179.893 E21.21176
G1 X114.385 Y180.189 E21.24295
G1 X113.471 Y180.405 E21.27419
G1 X112.577 Y180.535 E21.30424
G1 X111.818 Y180.585 E21.32954
G1 X111.17 Y180.6 E21.3511
G1 X99.056 Y180.599 E21.75401
G1 X98.336 Y180.588 E21.77796
G1 X97.399 Y180.532 E21.80918
G1 X96.471 Y180.393 E21.84039
G1 X95.558 Y180.172 E21.87163
G1 X94.669 Y179.871 E21.90285
G1 X93.764 Y179.472 E21.93575
G1 X89.751 Y177.465 E22.08498
G1 X88.932 Y177.007 E22.11619
G1 X88.157 Y176.479 E22.14738
G1 X87.458 Y175.908 E22.1774
G1 X87.074 Y175.55 E22.19486
G1 X86.229 Y174.718 E22.2343
G1 X84.117 Y172.601 E22.33376
G1 X83.856 Y172.329 E22.3463
G1 X83.236 Y171.624 E22.37753
G1 X82.702 Y170.896 E22.40756
G1 X82.028 Y169.737 E22.45215
G1 X81.022 Y167.723 E22.52703
G1 X80.641 Y166.865 E22.55825
G1 X80.338 Y165.977 E22.58946
G1 X80.114 Y165.065 E22.62069
G1 X79.972 Y164.139 E22.65185
G1 X79.915 Y163.318 E22.67922
G1 X79.9 Y162.67 E22.70078
G1 X79.901 Y152.545 E23.03754
G1 X79.913 Y151.804 E23.06219
G1 X79.997 Y150.641 E23.10097
G1 X80.203 Y149.035 E23.15483
G1 X80.486 Y146.472 E23.24059
G1 X80.695 Y143.93 E23.32542
G1 X80.827 Y141.465 E23.40753
G1 X80.9 Y137.784 E23.52998
G1 X80.901 Y132.556 E23.70387
G1 X80.919 Y131.358 E23.74372
G1 X80.976 Y129.314 E23.81173
G1 X80.976 Y126.785 E23.89584
G1 X80.903 Y123.951 E23.99013
G1 X80.9 Y121.109 E24.08466
G1 X80.863 Y118.509 E24.17114
G1 X80.754 Y115.952 E24.25626
G1 X80.578 Y113.461 E24.33932
G1 X80.33 Y110.961 E24.42288
M204 S2000
G0 F7500 X80.727 Y110.91
M204 S500
G1 F1500 X80.391 Y108.281 E24.51103
G1 X80.313 Y107.277 E24.54453
G1 X80.3 Y106.67 E24.56472
G1 X80.301 Y95.551 E24.93454
G1 X80.312 Y94.833 E24.95842
G1 X80.398 Y93.658 E24.99761
G1 X80.548 Y92.521 E25.03575
G1 X80.847 Y89.954 E25.12171
G1 X81.071 Y87.434 E25.20586
G1 X81.224 Y84.884 E25.29082
G1 X81.304 Y82.344 E25.37534
G1 X81.313 Y79.735 E25.46212
G1 X81.3 Y78.687 E25.49698
G1 X81.301 Y73.561 E25.66747
G1 X81.311 Y72.863 E25.69069
G1 X81.334 Y72.303 E25.70933
G1 X81.432 Y70.891 E25.75641
G1 X81.569 Y68.646 E25.83121
G1 X81.652 Y66.146 E25.91441
G1 X81.662 Y63.578 E25.99982
G1 X81.602 Y61.042 E26.08419
G1 X81.47 Y58.506 E26.16866
G1 X81.338 Y56.762 E26.22683
G1 X81.313 Y56.278 E26.24295
G1 X81.3 Y55.671 E26.26314
G1 X81.301 Y50.521 E26.43443
G1 X81.311 Y49.856 E26.45655
G1 X81.365 Y48.954 E26.48661
G1 X81.498 Y48.061 E26.51663
G1 X81.709 Y47.183 E26.54667
G1 X81.998 Y46.327 E26.57672
G1 X82.361 Y45.5 E26.60676
G1 X82.795 Y44.709 E26.63677
G1 X83.298 Y43.958 E26.66683
G1 X83.866 Y43.256 E26.69686
G1 X84.493 Y42.606 E26.7269
G1 X85.175 Y42.014 E26.75694
G1 X85.907 Y41.485 E26.78698
G1 X86.683 Y41.023 E26.81701
G1 X87.497 Y40.632 E26.84705
G1 X88.342 Y40.313 E26.87709
G1 X89.212 Y40.071 E26.90713
G1 X90.1 Y39.907 E26.93716
G1 X91.223 Y39.813 E26.97464
G1 X91.83 Y39.8 E26.99484
G1 X126.793 Y39.8 E28.15771
G1 X127.637 Y39.811 E28.18578
G1 X128.539 Y39.864 E28.21584
G1 X129.432 Y39.996 E28.24586
G1 X130.31 Y40.207 E28.27589
G1 X131.166 Y40.495 E28.30593
G1 X131.993 Y40.857 E28.33596
G1 X132.785 Y41.292 E28.36601
G1 X133.536 Y41.794 E28.39606
G1 X134.239 Y42.361 E28.4261
G1 X134.889 Y42.988 E28.45613
G1 X135.481 Y43.67 E28.48617
G1 X136.011 Y44.401 E28.5162
G1 X136.473 Y45.177 E28.54624
G1 X136.866 Y45.99 E28.57627
G1 X137.184 Y46.835 E28.6063
G1 X137.427 Y47.705 E28.63635
G1 X137.592 Y48.593 E28.66639
G1 X137.687 Y49.723 E28.7041
G1 X137.7 Y50.33 E28.7243
G1 X137.699 Y55.416 E28.89346
G1 X137.689 Y56.132 E28.91728
G1 X137.666 Y56.696 E28.93605
G1 X137.568 Y58.109 E28.98316
G1 X137.431 Y60.354 E29.05797
G1 X137.348 Y62.854 E29.14116
G1 X137.338 Y65.422 E29.22658
G1 X137.398 Y67.958 E29.31095
G1 X137.53 Y70.501 E29.39564
G1 X137.661 Y72.23 E29.45331
G1 X137.685 Y72.69 E29.46863
G1 X137.7 Y73.329 E29.48989
G1 X137.699 Y78.426 E29.65942
G1 X137.688 Y79.162 E29.6839
G1 X137.598 Y80.368 E29.72413
G1 X137.378 Y82.003 E29.779
G1 X137.084 Y84.581 E29.8653
G1 X136.869 Y87.111 E29.94975
G1 X136.725 Y89.619 E30.0333
G1 X136.652 Y92.187 E30.11875
G1 X136.65 Y94.722 E30.20306
G1 X136.721 Y97.252 E30.28724
G1 X136.863 Y99.782 E30.37152
G1 X137.081 Y102.352 E30.45731
G1 X137.361 Y104.822 E30.53999
G1 X137.721 Y107.36 E30.62525
G1 X138.153 Y109.888 E30.71055
G1 X138.639 Y112.319 E30.793
G1 X139.233 Y114.9 E30.88109
G1 X139.396 Y115.565 E30.90386
G1 X139.572 Y116.451 E30.93391
G1 X139.685 Y117.691 E30.97532
G1 X139.7 Y118.33 E30.99658
G1 X139.699 Y123.417 E31.16578
G1 X139.681 Y124.63 E31.20612
G1 X139.624 Y126.675 E31.27417
G1 X139.624 Y129.216 E31.35868
G1 X139.697 Y132.049 E31.45294
G1 X139.699 Y137.452 E31.63264
G1 X139.688 Y138.156 E31.65606
G1 X139.634 Y139.058 E31.68612
G1 X139.5 Y139.951 E31.71615
G1 X139.288 Y140.829 E31.74619
G1 X138.999 Y141.685 E31.77624
G1 X138.474 Y142.824 E31.81795
G1 X138.027 Y143.655 E31.84934
G1 X137.433 Y144.722 E31.88996
G1 X136.242 Y147.01 E31.97575
G1 X135.159 Y149.241 E32.05823
G1 X134.106 Y151.582 E32.14361
G1 X133.114 Y153.964 E32.22943
G1 X132.205 Y156.331 E32.31376
G1 X131.382 Y158.669 E32.3962
G1 X130.595 Y161.127 E32.48204
G1 X129.881 Y163.592 E32.5674
G1 X129.353 Y165.594 E32.63626
G1 X129.085 Y166.456 E32.66629
G1 X128.617 Y167.549 E32.70583
G1 X127.621 Y169.545 E32.78003
G1 X127.182 Y170.335 E32.81009
G1 X126.675 Y171.082 E32.84011
G1 X126.105 Y171.782 E32.87014
G1 X125.768 Y172.141 E32.88652
G1 X124.958 Y172.965 E32.92495
G1 X122.824 Y175.096 E33.02525
G1 X122.566 Y175.344 E33.03715
G1 X121.887 Y175.94 E33.0672
G1 X121.159 Y176.474 E33.09723
G1 X120.094 Y177.095 E33.13824
G1 X115.977 Y179.154 E33.29134
G1 X115.148 Y179.514 E33.3214
G1 X114.292 Y179.8 E33.35142
G1 X113.413 Y180.009 E33.38147
G1 X112.519 Y180.139 E33.41152
G1 X111.809 Y180.185 E33.43518
