;FLAVOR:Marlin
;TIME:1608
;Filament used: 0.897896m
;Layer height: 0.2
;MINX:42.59
;MINY:16.796
;MINZ:0.2
;MAXX:187.7
;MAXY:192.918
;MAXZ:20.4
;TARGET_MACHINE.NAME:Creality Ender-3 S1
;Generated with Cura_SteamEngine 5.9.0
M82 ;absolute extrusion mode
; Ender 3 S1 Start G-code
; M413 S0 ; Disable power loss recovery
G92 E0 ; Reset Extruder

; Prep surfaces before auto home for better accuracy
M140 S60
M104 S200

G28 ; Home all axes
G1 Z10.0 F3000 ; Move Z Axis up little to prevent scratching of Heat Bed
G1 X0 Y0

M190 S60
M109 S200

G1 X0.1 Y20 Z0.3 F5000.0 ; Move to start position
G1 X0.1 Y200.0 Z0.3 F1500.0 E15 ; Draw the first line
G1 X0.4 Y200.0 Z0.3 F5000.0 ; Move to side a little
G1 X0.4 Y20 Z0.3 F1500.0 E30 ; Draw the second line
G92 E0 ; Reset Extruder
G1 Z2.0 F3000 ; Move Z Axis up little to prevent scratching of Heat Bed
G1 X5 Y20 Z0.3 F5000.0 ; Move over to prevent blob squish

G92 E0
G92 E0
G1 F2400 E-0.8
;LAYER_COUNT:102
;LAYER:0
M107
M204 S2000
G0 F7500 X173.295 Y48.606 Z0.2
M204 S500
;TYPE:SKIRT
G1 F2400 E0
G1 F1500 X172.325 Y48.7 E0.03241
G1 X171.422 Y48.71 E0.06245
G1 X170.175 Y48.603 E0.10408
G1 X169.032 Y48.433 E0.14251
G1 X168.311 Y48.309 E0.16684
G1 X167.362 Y48.098 E0.19918
G1 X166.462 Y47.815 E0.23056
G1 X165.373 Y47.352 E0.26992
G1 X164.418 Y46.879 E0.30536
G1 X163.692 Y46.498 E0.33263
G1 X162.911 Y46.044 E0.36268
G1 X162.05 Y45.434 E0.39777
G1 X161.17 Y44.667 E0.4366
G1 X160.509 Y44.023 E0.46729
G1 X159.818 Y43.315 E0.5002
G1 X159.218 Y42.64 E0.53024
G1 X158.592 Y41.793 E0.56527
G1 X158.01 Y40.819 E0.60301
G1 X157.476 Y39.799 E0.6413
G1 X157.136 Y39.105 E0.667
G1 X156.748 Y38.211 E0.69942
G1 X156.45 Y37.316 E0.73079
G1 X156.187 Y36.164 E0.77009
G1 X155.996 Y35.043 E0.80791
G1 X155.89 Y34.305 E0.83271
G1 X155.796 Y33.335 E0.86513
G1 X155.786 Y32.432 E0.89516
G1 X155.893 Y31.185 E0.93679
G1 X156.063 Y30.042 E0.97522
G1 X156.187 Y29.321 E0.99956
G1 X156.398 Y28.372 E1.03189
G1 X156.681 Y27.472 E1.06327
G1 X157.144 Y26.383 E1.10263
G1 X157.622 Y25.418 E1.13845
G1 X158.005 Y24.688 E1.16586
G1 X158.46 Y23.908 E1.1959
G1 X159.071 Y23.05 E1.23093
G1 X159.831 Y22.178 E1.2694
G1 X160.473 Y21.519 E1.30001
G1 X161.172 Y20.836 E1.33251
G1 X161.846 Y20.235 E1.36254
G1 X162.691 Y19.609 E1.39752
G1 X163.679 Y19.017 E1.43583
G1 X164.445 Y18.614 E1.46462
G1 X165.391 Y18.145 E1.49974
G1 X166.219 Y17.783 E1.52979
G1 X167.217 Y17.45 E1.56479
G1 X168.318 Y17.199 E1.60235
G1 X169.166 Y17.051 E1.63098
G1 X170.191 Y16.9 E1.66544
G1 X171.161 Y16.806 E1.69785
G1 X172.064 Y16.796 E1.72788
G1 X173.311 Y16.903 E1.76951
G1 X174.454 Y17.073 E1.80795
G1 X175.175 Y17.197 E1.83228
G1 X176.124 Y17.408 E1.86461
G1 X177.024 Y17.691 E1.89599
G1 X178.113 Y18.154 E1.93535
G1 X179.068 Y18.627 E1.9708
G1 X179.794 Y19.008 E1.99807
G1 X180.575 Y19.462 E2.02811
G1 X181.436 Y20.072 E2.06321
G1 X182.316 Y20.839 E2.10204
G1 X182.977 Y21.483 E2.13273
G1 X183.659 Y22.181 E2.16519
G1 X184.26 Y22.855 E2.19522
G1 X184.886 Y23.7 E2.2302
G1 X185.472 Y24.68 E2.26818
G1 X186.013 Y25.713 E2.30696
G1 X186.353 Y26.406 E2.33264
G1 X186.714 Y27.233 E2.36265
G1 X187.047 Y28.232 E2.39767
G1 X187.297 Y29.327 E2.43503
G1 X187.445 Y30.174 E2.46363
G1 X187.596 Y31.201 E2.49815
G1 X187.69 Y32.171 E2.53057
G1 X187.7 Y33.074 E2.5606
G1 X187.593 Y34.318 E2.60213
G1 X187.466 Y35.189 E2.63141
G1 X187.295 Y36.201 E2.66554
G1 X187.083 Y37.15 E2.69788
G1 X186.812 Y38.012 E2.72794
G1 X186.351 Y39.102 E2.7673
G1 X186.006 Y39.809 E2.79347
G1 X185.488 Y40.804 E2.83078
G1 X185.034 Y41.585 E2.86082
G1 X184.424 Y42.446 E2.89592
G1 X183.657 Y43.326 E2.93474
G1 X183.013 Y43.987 E2.96544
G1 X182.314 Y44.67 E2.99794
G1 X181.64 Y45.271 E3.02798
G1 X180.794 Y45.897 E3.06298
G1 X179.811 Y46.485 E3.10108
G1 X178.786 Y47.022 E3.13957
G1 X178.091 Y47.363 E3.16531
G1 X177.263 Y47.724 E3.19536
G1 X176.264 Y48.057 E3.23038
G1 X175.169 Y48.307 E3.26774
G1 X174.322 Y48.455 E3.29634
G1 X173.295 Y48.606 E3.33086
M204 S2000
G0 F7500 X173.256 Y48.208
M204 S500
G1 F1500 X172.321 Y48.3 E3.36211
G1 X171.418 Y48.31 E3.39215
G1 X170.234 Y48.207 E3.43167
G1 X169.1 Y48.039 E3.4698
G1 X168.397 Y47.918 E3.49353
G1 X167.482 Y47.716 E3.52469
G1 X166.582 Y47.433 E3.55607
G1 X165.551 Y46.994 E3.59334
G1 X164.604 Y46.525 E3.62849
G1 X163.893 Y46.152 E3.6552
G1 X163.112 Y45.698 E3.68524
G1 X162.313 Y45.132 E3.71781
G1 X161.449 Y44.38 E3.75591
G1 X160.795 Y43.743 E3.78627
G1 X160.117 Y43.049 E3.81854
G1 X159.517 Y42.374 E3.84858
G1 X158.935 Y41.588 E3.88111
G1 X158.364 Y40.633 E3.91812
G1 X157.835 Y39.623 E3.95604
G1 X157.503 Y38.945 E3.98115
G1 X157.128 Y38.085 E4.01235
G1 X156.83 Y37.19 E4.04373
G1 X156.581 Y36.097 E4.08101
G1 X156.392 Y34.986 E4.11849
G1 X156.288 Y34.266 E4.14269
G1 X156.196 Y33.331 E4.17394
G1 X156.186 Y32.428 E4.20397
G1 X156.289 Y31.244 E4.2435
G1 X156.457 Y30.11 E4.28163
G1 X156.578 Y29.407 E4.30536
G1 X156.78 Y28.492 E4.33652
G1 X157.063 Y27.592 E4.3679
G1 X157.502 Y26.561 E4.40517
G1 X157.976 Y25.604 E4.44069
G1 X158.351 Y24.89 E4.46752
G1 X158.806 Y24.11 E4.49755
G1 X159.373 Y23.313 E4.53008
G1 X160.118 Y22.457 E4.56783
G1 X160.753 Y21.805 E4.5981
G1 X161.438 Y21.135 E4.62997
G1 X162.112 Y20.534 E4.66
G1 X162.897 Y19.952 E4.6925
G1 X163.866 Y19.371 E4.73008
G1 X164.623 Y18.972 E4.75854
G1 X165.551 Y18.512 E4.79299
G1 X166.379 Y18.15 E4.82305
G1 X167.306 Y17.84 E4.85556
G1 X168.387 Y17.593 E4.89244
G1 X169.225 Y17.447 E4.92073
G1 X170.23 Y17.298 E4.95452
G1 X171.165 Y17.206 E4.98577
G1 X172.068 Y17.196 E5.01581
G1 X173.252 Y17.299 E5.05534
G1 X174.386 Y17.467 E5.09347
G1 X175.089 Y17.588 E5.11719
G1 X176.004 Y17.79 E5.14836
G1 X176.904 Y18.073 E5.17974
G1 X177.935 Y18.512 E5.21701
G1 X178.882 Y18.981 E5.25216
G1 X179.593 Y19.354 E5.27886
G1 X180.374 Y19.808 E5.30891
G1 X181.173 Y20.374 E5.34147
G1 X182.037 Y21.126 E5.37957
G1 X182.691 Y21.763 E5.40994
G1 X183.36 Y22.447 E5.44176
G1 X183.961 Y23.121 E5.47179
G1 X184.543 Y23.906 E5.5043
G1 X185.118 Y24.866 E5.54151
G1 X185.654 Y25.889 E5.57993
G1 X185.986 Y26.566 E5.60501
G1 X186.347 Y27.393 E5.63502
G1 X186.657 Y28.321 E5.66756
G1 X186.903 Y29.396 E5.70424
G1 X187.049 Y30.233 E5.7325
G1 X187.198 Y31.24 E5.76636
G1 X187.29 Y32.175 E5.7976
G1 X187.3 Y33.078 E5.82764
G1 X187.197 Y34.261 E5.86714
G1 X187.072 Y35.122 E5.89607
G1 X186.904 Y36.114 E5.92954
G1 X186.701 Y37.03 E5.96074
G1 X186.43 Y37.892 E5.9908
G1 X185.992 Y38.926 E6.02815
G1 X185.651 Y39.624 E6.05398
G1 X185.142 Y40.603 E6.09068
G1 X184.688 Y41.384 E6.12073
G1 X184.122 Y42.183 E6.1533
G1 X183.37 Y43.047 E6.19139
G1 X182.733 Y43.701 E6.22176
G1 X182.048 Y44.371 E6.25363
G1 X181.374 Y44.972 E6.28366
G1 X180.589 Y45.554 E6.31617
G1 X179.625 Y46.131 E6.35353
G1 X178.61 Y46.663 E6.39165
G1 X177.931 Y46.996 E6.4168
G1 X177.103 Y47.357 E6.44684
G1 X176.175 Y47.667 E6.47939
G1 X175.1 Y47.913 E6.51606
G1 X174.263 Y48.059 E6.54432
G1 X173.256 Y48.208 E6.57818
M204 S2000
G0 F7500 X173.216 Y47.81
M204 S500
G1 F1500 X172.317 Y47.9 E6.60823
G1 X171.414 Y47.91 E6.63827
G1 X170.292 Y47.811 E6.67573
G1 X169.168 Y47.645 E6.71352
G1 X168.483 Y47.527 E6.73664
G1 X167.601 Y47.334 E6.76667
G1 X166.739 Y47.065 E6.7967
G1 X165.728 Y46.635 E6.83324
G1 X164.79 Y46.171 E6.86805
G1 X164.094 Y45.806 E6.89419
G1 X163.313 Y45.352 E6.92424
G1 X162.576 Y44.83 E6.95427
G1 X161.712 Y44.078 E6.99237
G1 X161.081 Y43.463 E7.02168
G1 X160.416 Y42.783 E7.05331
G1 X159.816 Y42.108 E7.08335
G1 X159.278 Y41.382 E7.1134
G1 X158.718 Y40.447 E7.14965
G1 X158.194 Y39.447 E7.1872
G1 X157.869 Y38.785 E7.21173
G1 X157.507 Y37.958 E7.24176
G1 X157.22 Y37.101 E7.27182
G1 X156.975 Y36.03 E7.30836
G1 X156.788 Y34.929 E7.3455
G1 X156.686 Y34.226 E7.36913
G1 X156.596 Y33.327 E7.39918
G1 X156.586 Y32.424 E7.42922
G1 X156.685 Y31.302 E7.46668
G1 X156.851 Y30.178 E7.50447
G1 X156.969 Y29.493 E7.52759
G1 X157.162 Y28.611 E7.55762
G1 X157.431 Y27.749 E7.58765
G1 X157.861 Y26.738 E7.62419
G1 X158.33 Y25.79 E7.65937
G1 X158.697 Y25.092 E7.6856
G1 X159.152 Y24.312 E7.71563
G1 X159.675 Y23.576 E7.74566
G1 X160.42 Y22.72 E7.78341
G1 X161.033 Y22.091 E7.81262
G1 X161.704 Y21.434 E7.84385
G1 X162.378 Y20.833 E7.87389
G1 X163.103 Y20.295 E7.90392
G1 X164.053 Y19.725 E7.94076
G1 X164.801 Y19.33 E7.9689
G1 X165.711 Y18.879 E8.00268
G1 X166.539 Y18.517 E8.03274
G1 X167.395 Y18.23 E8.06276
G1 X168.456 Y17.987 E8.09897
G1 X169.284 Y17.843 E8.12692
G1 X170.27 Y17.696 E8.16008
G1 X171.169 Y17.606 E8.19013
G1 X172.072 Y17.596 E8.22016
G1 X173.194 Y17.695 E8.25762
G1 X174.318 Y17.861 E8.29541
G1 X175.003 Y17.979 E8.31853
G1 X175.885 Y18.172 E8.34856
G1 X176.747 Y18.441 E8.3786
G1 X177.758 Y18.871 E8.41514
G1 X178.696 Y19.335 E8.44994
G1 X179.392 Y19.7 E8.47608
G1 X180.173 Y20.154 E8.50613
G1 X180.91 Y20.676 E8.53617
G1 X181.774 Y21.428 E8.57427
G1 X182.405 Y22.043 E8.60357
G1 X183.061 Y22.713 E8.63476
G1 X183.662 Y23.387 E8.66479
G1 X184.2 Y24.112 E8.69482
G1 X184.764 Y25.052 E8.73128
G1 X185.295 Y26.065 E8.76932
G1 X185.619 Y26.726 E8.79381
G1 X185.98 Y27.553 E8.82382
G1 X186.267 Y28.41 E8.85388
G1 X186.509 Y29.465 E8.88988
G1 X186.653 Y30.292 E8.9178
G1 X186.8 Y31.28 E8.95102
G1 X186.89 Y32.179 E8.98107
G1 X186.9 Y33.082 E9.01111
G1 X186.801 Y34.204 E9.04857
G1 X186.678 Y35.055 E9.07717
G1 X186.513 Y36.028 E9.10999
G1 X186.319 Y36.91 E9.14003
G1 X186.048 Y37.772 E9.17008
G1 X185.632 Y38.751 E9.20546
G1 X185.296 Y39.44 E9.23096
G1 X184.796 Y40.402 E9.26702
G1 X184.342 Y41.183 E9.29707
G1 X183.82 Y41.92 E9.3271
G1 X183.068 Y42.784 E9.3652
G1 X182.453 Y43.415 E9.39451
G1 X181.782 Y44.072 E9.42574
G1 X181.108 Y44.673 E9.45578
G1 X180.383 Y45.211 E9.4858
G1 X179.439 Y45.777 E9.52241
G1 X178.434 Y46.304 E9.56016
G1 X177.771 Y46.629 E9.58472
G1 X176.943 Y46.99 E9.61476
G1 X176.086 Y47.277 E9.64482
G1 X175.031 Y47.519 E9.68082
G1 X174.204 Y47.663 E9.70874
G1 X173.216 Y47.81 E9.74196
M204 S2000
G1 F2400 E8.94196
;MESH:hello_text_with_spike.stl
G0 F7500 X171.915 Y38.372
G0 X171.739 Y37.116
M204 S500
;TYPE:WALL-INNER
G1 F2400 E9.74196
G1 F1500 X173.088 Y36.902 E9.78739
G1 X174.306 Y36.284 E9.83282
G1 X175.271 Y35.315 E9.8783
G1 X175.894 Y34.099 E9.92375
G1 X176.108 Y32.752 E9.96911
G1 X175.894 Y31.404 E10.01451
G1 X175.271 Y30.187 E10.05998
G1 X174.306 Y29.221 E10.10539
G1 X173.088 Y28.598 E10.1509
G1 X171.74 Y28.384 E10.19629
G1 X170.393 Y28.598 E10.24165
G1 X169.177 Y29.221 E10.2871
G1 X168.208 Y30.186 E10.33258
G1 X167.59 Y31.404 E10.37801
G1 X167.376 Y32.753 E10.42344
G1 X167.591 Y34.1 E10.46881
G1 X168.208 Y35.315 E10.51413
G1 X169.177 Y36.284 E10.55971
G1 X170.392 Y36.902 E10.60505
G1 X171.739 Y37.116 E10.65041
M204 S2000
G0 F7500 X171.739 Y37.521
M204 S500
;TYPE:WALL-OUTER
G1 F1500 X173.213 Y37.287 E10.70005
G1 X174.544 Y36.612 E10.74969
G1 X175.599 Y35.553 E10.79941
G1 X176.279 Y34.225 E10.84903
G1 X176.513 Y32.752 E10.89863
G1 X176.279 Y31.279 E10.94824
G1 X175.599 Y29.948 E10.99795
G1 X174.544 Y28.893 E11.04758
G1 X173.213 Y28.213 E11.09729
G1 X171.74 Y27.979 E11.1469
G1 X170.267 Y28.213 E11.1965
G1 X168.939 Y28.893 E11.24613
G1 X167.88 Y29.948 E11.29584
G1 X167.205 Y31.279 E11.34548
G1 X166.971 Y32.753 E11.39512
G1 X167.205 Y34.225 E11.44469
G1 X167.88 Y35.553 E11.49424
G1 X168.939 Y36.612 E11.54405
G1 X170.267 Y37.287 E11.5936
G1 X171.739 Y37.521 E11.64317
M204 S2000
G0 F7500 X171.737 Y36.749
M204 S500
;TYPE:SKIN
G1 F1500 X170.503 Y36.555 E11.68472
G1 X169.392 Y35.988 E11.72621
G1 X168.5 Y35.097 E11.76814
G1 X167.937 Y33.985 E11.8096
G1 X167.739 Y32.751 E11.85116
G1 X167.937 Y31.515 E11.8928
G1 X168.504 Y30.4 E11.9344
G1 X169.388 Y29.516 E11.97598
G1 X170.503 Y28.945 E12.01765
G1 X171.739 Y28.747 E12.05928
G1 X172.973 Y28.945 E12.10085
G1 X174.084 Y29.512 E12.14234
G1 X174.976 Y30.404 E12.18429
G1 X175.547 Y31.515 E12.22584
G1 X175.741 Y32.751 E12.26745
G1 X175.543 Y33.985 E12.30902
G1 X174.971 Y35.101 E12.35073
G1 X174.092 Y35.984 E12.39217
G1 X172.973 Y36.555 E12.43395
G1 X171.737 Y36.749 E12.47557
M204 S2000
G0 F7500 X171.696 Y37.006
G0 X170.443 Y36.747
G0 X169.273 Y36.152
G0 X168.433 Y35.312
G0 X167.861 Y34.413
G0 X168.272 Y34.205
M204 S500
G1 F1500 X170.286 Y36.219 E12.5703
M204 S2000
G0 F7500 X171.075 Y36.441
M204 S500
G1 F1500 X168.047 Y33.414 E12.7127
M204 S2000
G0 F7500 X167.942 Y32.743
M204 S500
G1 F1500 X171.744 Y36.545 E12.89154
M204 S2000
G0 F7500 X172.233 Y36.468
M204 S500
G1 F1500 X168.021 Y32.256 E13.08966
M204 S2000
G0 F7500 X168.099 Y31.769
M204 S500
G1 F1500 X172.721 Y36.391 E13.30706
M204 S2000
G0 F7500 X173.14 Y36.244
M204 S500
G1 F1500 X168.245 Y31.35 E13.53728
M204 S2000
G0 F7500 X168.436 Y30.974
M204 S500
G1 F1500 X173.515 Y36.053 E13.77619
M204 S2000
G0 F7500 X173.89 Y35.862
M204 S500
G1 F1500 X168.627 Y30.599 E14.02374
M204 S2000
G0 F7500 X168.89 Y30.297
M204 S500
G1 F1500 X174.193 Y35.6 E14.27318
M204 S2000
G0 F7500 X174.475 Y35.316
M204 S500
G1 F1500 X169.172 Y30.014 E14.52259
M204 S2000
G0 F7500 X169.455 Y29.731
M204 S500
G1 F1500 X174.757 Y35.033 E14.77198
M204 S2000
G0 F7500 X174.965 Y34.675
M204 S500
G1 F1500 X169.813 Y29.523 E15.01431
M204 S2000
G0 F7500 X170.187 Y29.331
M204 S500
G1 F1500 X175.157 Y34.301 E15.24809
M204 S2000
G0 F7500 X175.348 Y33.927
M204 S500
G1 F1500 X170.561 Y29.14 E15.47325
M204 S2000
G0 F7500 X171.048 Y29.061
M204 S500
G1 F1500 X175.428 Y33.441 E15.67928
M204 S2000
G0 F7500 X175.507 Y32.954
M204 S500
G1 F1500 X171.536 Y28.983 E15.86606
M204 S2000
G0 F7500 X172.132 Y29.013
M204 S500
G1 F1500 X175.477 Y32.359 E16.02342
M204 S2000
G0 F7500 X175.372 Y31.688
M204 S500
G1 F1500 X172.805 Y29.121 E16.14417
M204 S2000
G0 F7500 X172.877 Y28.667
G0 X174.094 Y29.228
G0 X173.885 Y29.635
M204 S500
G1 F1500 X174.855 Y30.605 E16.18979
M104 S200
M204 S2000
G1 F2400 E15.38979
;MESH:NONMESH
G0 F300 X174.855 Y30.605 Z0.4
G0 F7500 X175.265 Y30.396
G0 X175.739 Y31.455
G0 X175.946 Y32.752
G0 X175.739 Y34.048
G0 X175.139 Y35.219
G0 X174.613 Y35.748
G0 X173.147 Y37.069
G0 X173.319 Y38.149
G0 X173.216 Y47.81
;TIME_ELAPSED:26.940159
;LAYER:1
M106 S85
M204 S500
;TYPE:SKIRT
G1 F2400 E16.18979
G1 F1500 X172.317 Y47.9 E16.21984
G1 X171.414 Y47.91 E16.24988
G1 X170.292 Y47.811 E16.28734
G1 X169.168 Y47.645 E16.32513
G1 X168.483 Y47.527 E16.34825
G1 X167.601 Y47.334 E16.37828
G1 X166.739 Y47.065 E16.40831
G1 X165.728 Y46.635 E16.44485
G1 X164.79 Y46.171 E16.47966
G1 X164.094 Y45.806 E16.5058
G1 X163.313 Y45.352 E16.53585
G1 X162.576 Y44.83 E16.56588
G1 X161.712 Y44.078 E16.60398
G1 X161.081 Y43.463 E16.63329
G1 X160.416 Y42.783 E16.66492
G1 X159.816 Y42.108 E16.69496
G1 X159.278 Y41.382 E16.72501
G1 X158.718 Y40.447 E16.76126
G1 X158.194 Y39.447 E16.79881
G1 X157.869 Y38.785 E16.82334
G1 X157.507 Y37.958 E16.85337
G1 X157.22 Y37.101 E16.88343
G1 X156.975 Y36.03 E16.91997
G1 X156.788 Y34.929 E16.95711
G1 X156.686 Y34.226 E16.98074
G1 X156.596 Y33.327 E17.01079
G1 X156.586 Y32.424 E17.04083
G1 X156.685 Y31.302 E17.07829
G1 X156.851 Y30.178 E17.11608
G1 X156.969 Y29.493 E17.1392
G1 X157.162 Y28.611 E17.16923
G1 X157.431 Y27.749 E17.19926
G1 X157.861 Y26.738 E17.2358
G1 X158.33 Y25.79 E17.27098
G1 X158.697 Y25.092 E17.29721
G1 X159.152 Y24.312 E17.32724
G1 X159.675 Y23.576 E17.35727
G1 X160.42 Y22.72 E17.39502
G1 X161.033 Y22.091 E17.42423
G1 X161.704 Y21.434 E17.45546
G1 X162.378 Y20.833 E17.4855
G1 X163.103 Y20.295 E17.51553
G1 X164.053 Y19.725 E17.55237
G1 X164.801 Y19.33 E17.58051
G1 X165.711 Y18.879 E17.61429
G1 X166.539 Y18.517 E17.64434
G1 X167.395 Y18.23 E17.67437
G1 X168.456 Y17.987 E17.71058
G1 X169.284 Y17.843 E17.73853
G1 X170.27 Y17.696 E17.77169
G1 X171.169 Y17.606 E17.80174
G1 X172.072 Y17.596 E17.83177
G1 X173.194 Y17.695 E17.86923
G1 X174.318 Y17.861 E17.90702
G1 X175.003 Y17.979 E17.93014
G1 X175.885 Y18.172 E17.96017
G1 X176.747 Y18.441 E17.99021
G1 X177.758 Y18.871 E18.02675
G1 X178.696 Y19.335 E18.06155
G1 X179.392 Y19.7 E18.08769
G1 X180.173 Y20.154 E18.11774
G1 X180.91 Y20.676 E18.14778
G1 X181.774 Y21.428 E18.18587
G1 X182.405 Y22.043 E18.21518
G1 X183.061 Y22.713 E18.24637
G1 X183.662 Y23.387 E18.2764
G1 X184.2 Y24.112 E18.30643
G1 X184.764 Y25.052 E18.34289
G1 X185.295 Y26.065 E18.38093
G1 X185.619 Y26.726 E18.40542
G1 X185.98 Y27.553 E18.43543
G1 X186.267 Y28.41 E18.46549
